svgs/sharp-light/filter-list.svg

<svg xmlns="http://www.w3.org/2000/svg" viewBox="0 0 512 512"><!--! Font Awesome Pro 6.6.0 by @fontawesome - https://fontawesome.com License - https://fontawesome.com/license (Commercial License) Copyright 2024 Fonticons, Inc. --><path d="M144 256l0 87.2 64 44L208 256l0-12 7.9-9L320 116l0-20L32 96l0 20 104.1 119 7.9 9 0 12zm-32 0L0 128 0 96 0 64l32 0 288 0 32 0 0 32 0 32L240 256l0 153.2 0 38.8-32-22-96-66 0-104zM384 80l16 0 96 0 16 0 0 32-16 0-96 0-16 0 0-32zM336 240l160 0 16 0 0 32-16 0-160 0-16 0 0-32 16 0zm0 160l160 0 16 0 0 32-16 0-160 0-16 0 0-32 16 0z"/></svg>

<svg xmlns="http://www.w3.org/2000/svg" viewBox="0 0 512 512"><!--! Font Awesome Pro 6.4.0 by @fontawesome - https://fontawesome.com License - https://fontawesome.com/license (Commercial License) Copyright 2023 Fonticons, Inc. --><path d="M144 256v87.2l64 44V256 244l7.9-9L320 116V96H32v20l104.1 119 7.9 9v12zm-32 0L0 128V96 64H32 320h32V96v32L240 256V409.2 448l-32-22-96-66V256zM384 80h16 96 16v32H496 400 384V80zM336 240H496h16v32H496 336 320V240h16zm0 160H496h16v32H496 336 320V400h16z"/></svg>
